components/Company/logos/logo-m2mobi.svg

<svg height="140" viewBox="0 0 400 140" width="400" xmlns="http://www.w3.org/2000/svg"><g fill="none" transform="translate(95 26)"><path d="m44.4649882 89c-11.8690008 0-23.0377655-4.6215578-31.440598-13.0243902-8.40283237-8.4028325-13.0243902-19.5715972-13.0243902-31.4756098 0-11.8690008 4.62155783-23.0727773 13.0243902-31.4756098 8.4028325-8.40283237 19.5715972-13.0243902 31.4756098-13.0243902 5.9520063 0 11.6939418 1.15538946 17.120771 3.43115657.2800945.14004721.5952007.24508261.8752951.38512982 1.4354839.63021243 2.1007081 2.34579071 1.4704957 3.78127459-.6302125 1.47049567-2.3457908 2.1007081-3.7812746 1.47049567-.2450826-.10503541-.5251771-.21007081-.7702597-.31510622-4.7265932-1.96066089-9.7332808-2.97600314-14.9150275-2.97600314-21.3571991 0-38.75806452 17.36585361-38.75806452 38.75806451 0 21.3571991 17.36585362 38.7580645 38.75806452 38.7580645 21.3571991 0 38.7580645-17.3658536 38.7580645-38.7580645 0-5.1467349-.9803304-10.1534225-2.9409913-14.8450039-.175059-.4201417-.350118-.8402833-.5601889-1.2604249-.6652242-1.4354839-.0350118-3.1510622 1.4004721-3.8162864s3.1510622-.0350118 3.8162864 1.4004721c.2100708.4901652.4201416.9803304.6302124 1.4704957 2.2407553 5.4268292 3.3961448 11.1337529 3.3961448 17.0507474 0 11.8690008-4.6215578 23.0727773-13.0243902 31.4756098-8.4378443 8.3678206-19.606609 12.9893784-31.5106216 12.9893784" fill="#010202"/><path d="m73 11c0 1.6463415-1.3536585 3-3 3s-3-1.3536585-3-3c0-1.64634146 1.3536585-3 3-3s3 1.35365854 3 3" fill="#010202"/><path d="m80 19c0 1.6463415-1.3536585 3-3 3s-3-1.3536585-3-3 1.3536585-3 3-3 3 1.3170732 3 3" fill="#010202"/><path d="m66 41.5518987c0-6.356962-5.3737374-11.5518987-11.9494949-11.5518987-3.6060607 0-6.8585859 1.5721519-9.0505051 4.0329114-2.1919192-2.4607595-5.4444444-4.0329114-9.0505051-4.0329114-6.5757575 0-11.9494949 5.1949367-11.9494949 11.5518987v12.6455697c0 1.5379746 1.3080808 2.8025316 2.8989899 2.8025316s2.8989899-1.264557 2.8989899-2.8025316v-12.6455697c0-3.2810126 2.7575758-5.9468354 6.1515151-5.9468354 3.3939394 0 6.1515152 2.6658228 6.1515152 5.9468354v12.6455697c0 1.5379746 1.3080808 2.8025316 2.8989899 2.8025316s2.8989899-1.264557 2.8989899-2.8025316v-12.6455697c0-3.2810126 2.7575758-5.9468354 6.1515152-5.9468354 3.3939393 0 6.1515151 2.6658228 6.1515151 5.9468354v12.6455697c0 1.5379746 1.3080808 2.8025316 2.8989899 2.8025316s2.8989899-1.264557 2.8989899-2.8025316z" fill="#000"/><g fill="#010202"><path d="m114.03005 36 4.557596 13.0539568h.070117l4.312187-13.0539568h6.03005v19h-3.996661v-13.4640288h-.070117l-4.767947 13.4640288h-3.295492l-4.803005-13.3615108h-.035058v13.3615108h-4.03172v-19z"/><path d="m131.805 40.5709156c.28-.9210054.735-1.7055655 1.295-2.3877917.595-.6822262 1.295-1.1938959 2.205-1.6032316.875-.3752244 1.89-.5798923 3.045-.5798923.875 0 1.715.1364452 2.485.4093357.805.2728905 1.47.6481149 2.1 1.1256733.595.5116696 1.085 1.0915619 1.435 1.8420107.35.7163376.525 1.535009.525 2.4560144 0 .9551167-.14 1.7396769-.455 2.4219031s-.735 1.2621185-1.225 1.8078994c-.525.5116697-1.085.989228-1.715 1.4326751-.63.4093357-1.295.8527827-1.96 1.2621185-.665.4093357-1.295.8527827-1.925 1.3303411-.63.4775583-1.155 1.0233393-1.645 1.6714542h9.03v3.2405745h-14c0-1.0915619.175-2.0125673.49-2.7971275.315-.7845601.77-1.5008976 1.295-2.1490125.56-.6140036 1.19-1.1938959 1.925-1.7396769.735-.5457809 1.505-1.0574506 2.345-1.6373429.42-.2728905.875-.5798923 1.33-.8527827.455-.3070018.91-.6140036 1.295-.9551167.385-.3411132.735-.7504489.98-1.1938959.28-.4434471.385-.9551167.385-1.5008977 0-.9210054-.28-1.6032316-.805-2.1149012-.525-.5116697-1.225-.7504489-2.065-.7504489-.56 0-1.05.1364453-1.435.3752244-.385.2728905-.7.5798923-.945 1.0233394-.245.4093357-.42.886894-.49 1.3644524-.105.5116696-.14.989228-.14 1.5008977h-3.71c-.07-1.091562.07-2.08079.35-3.0017954"/><path d="m150.796774 41.3381643v1.8599033h.070968c.532258-.7101449 1.135484-1.2512077 1.880645-1.6231884.745161-.3719806 1.56129-.5748792 2.519355-.5748792.887097 0 1.73871.1690821 2.483871.5072464.745161.3381642 1.312903.9130435 1.703226 1.7584541.425806-.6086957.993548-1.115942 1.738709-1.589372.709678-.4734299 1.596775-.6763285 2.590323-.6763285.745161 0 1.454839.1014493 2.093548.2705314.63871.1690821 1.206452.47343 1.667742.8454106.461291.3719807.816129.8792271 1.064516 1.5217392.248388.6086956.390323 1.3864734.390323 2.2657004v9.0966184h-3.93871v-7.7101449c0-.4396136-.035484-.8792271-.070967-1.2850242-.035484-.4057971-.141936-.7439613-.319355-1.0483092-.17742-.3043478-.425807-.5410628-.745162-.7101449-.319354-.1690821-.745161-.2705314-1.312903-.2705314s-.993548.1014493-1.348387.3043478c-.354839.2028986-.603226.47343-.816129.7777778-.177419.3381643-.319355.7101449-.390322 1.115942-.070968.4057971-.106452.8454107-.106452 1.2512078v7.5748792h-3.93871v-7.6425121c0-.4057971 0-.8115942-.035484-1.1835749-.035484-.4057971-.106451-.7439613-.248387-1.0821256-.141935-.3381642-.354838-.6086956-.674193-.8115942-.319355-.2028985-.780645-.3043478-1.419355-.3043478-.177419 0-.425807.0338164-.745161.1014493-.319355.0676328-.603226.236715-.887097.4396135-.283871.236715-.532258.5410628-.745161.9468599-.212904.4057971-.319355.9468599-.319355 1.6231884v7.9130435h-3.93871v-13.6280193h3.796774z"/><path d="m173.503597 44.4221698c.335732-.9198113.805756-1.6981132 1.410072-2.370283.604317-.6367925 1.342926-1.1674528 2.182254-1.5212264.839329-.3537736 1.81295-.5306604 2.88729-.5306604 1.074341 0 2.014389.1768868 2.887291.5306604.872901.3537736 1.61151.8490566 2.215827 1.5212264.604316.6367924 1.07434 1.4504717 1.410072 2.370283.335731.9198113.503597 1.9457547.503597 3.1132076 0 1.1320754-.167866 2.1580188-.503597 3.0778301-.335732.9198114-.805756 1.6981133-1.410072 2.3702831-.604317.6367924-1.342926 1.1674528-2.215827 1.485849-.872902.3537736-1.81295.5306604-2.887291.5306604-1.07434 0-2.014388-.1768868-2.88729-.5306604-.839328-.3537736-1.577937-.8490566-2.182254-1.485849-.604316-.6367925-1.07434-1.4504717-1.410072-2.3702831-.335731-.9198113-.503597-1.9457547-.503597-3.0778301 0-1.1320755.167866-2.1933963.503597-3.1132076m3.357314 4.7759434c.10072.5306604.268585 1.0259434.537171 1.4504717.268585.4245283.604316.7783019 1.007194 1.0259434.402877.2476415.940048.3891509 1.577937.3891509.63789 0 1.141487-.1415094 1.577938-.3891509s.772182-.6014151 1.007194-1.0259434c.268585-.4245283.436451-.9198113.537171-1.4504717.100719-.5306604.167865-1.0966981.167865-1.6627358 0-.5660378-.067146-1.1320755-.167865-1.6981132-.10072-.5660378-.268586-1.0259434-.537171-1.4504717s-.604316-.7783019-1.007194-1.0259434c-.436451-.2830189-.940048-.389151-1.577938-.389151-.637889 0-1.141486.1415094-1.577937.389151-.402878.2830188-.738609.6014151-1.007194 1.0259434-.268586.4245283-.436451.9198113-.537171 1.4504717-.100719.5660377-.167865 1.0966981-.167865 1.6981132s.067146 1.0966981.167865 1.6627358"/><path d="m192.802469 35.0706714v7.1378092h.069136c.449383-.7420495 1.106173-1.2720848 1.901235-1.6254417.795061-.3533569 1.624691-.4946997 2.488888-.4946997.691358 0 1.382716.1413428 2.074074.4240283s1.313581.7420495 1.832099 1.3427562c.553087.6007067 1.002469 1.3780918 1.31358 2.3321555.345679.9540636.518519 2.0494699.518519 3.3568904s-.17284 2.4381626-.518519 3.3568905c-.345679.9540636-.795061 1.7314487-1.31358 2.3321554-.553086.6007068-1.175308 1.0600707-1.832099 1.3427562-.691358.2826855-1.382716.4240283-2.074074.4240283-1.037037 0-1.935802-.1766784-2.730864-.4946996s-1.417284-.8833923-1.832099-1.6607774h-.069135v1.8021201h-3.62963v-19.6466431h3.802469zm6.187654 10.8127208c-.138271-.565371-.311111-1.024735-.587654-1.4487632-.276543-.4240283-.622222-.7420495-1.002469-.9893993-.414815-.2473498-.898765-.3886926-1.451852-.3886926-.553086 0-1.037037.1413428-1.451852.3886926s-.760494.565371-1.037037.9893993c-.276543.4240282-.449382.9187279-.587654 1.4487632-.138272.5653711-.17284 1.1307421-.17284 1.7314488s.069136 1.1660777.17284 1.6961131c.138272.565371.311111 1.0247349.587654 1.4487632s.622222.7420495 1.037037.9893993.898766.3886926 1.451852.3886926c.587654 0 1.071605-.1413428 1.451852-.3886926.414815-.2473498.725926-.565371 1.002469-.9893993s.449383-.9187279.587654-1.4487632c.138272-.5653711.17284-1.1307421.17284-1.6961131 0-.6007067-.034568-1.2014134-.17284-1.7314488"/><path d="m206.035714 36h3.964286v3.1097122h-3.964286zm3.928572 19h-3.964286v-13.7715827h3.964286z"/></g></g></svg>

<?xml version="1.0" encoding="UTF-8"?>
<svg width="400px" height="140px" viewBox="0 0 400 140" version="1.1" xmlns="http://www.w3.org/2000/svg" xmlns:xlink="http://www.w3.org/1999/xlink">
    <title>Artboard</title>
    <g id="Artboard" stroke="none" stroke-width="1" fill="none" fill-rule="evenodd">
        <g id="m2mobi-vector-logo" transform="translate(95.000000, 26.000000)" fill-rule="nonzero">
            <path d="M44.4649882,89 C32.5959874,89 21.4272227,84.3784422 13.0243902,75.9756098 C4.62155783,67.5727773 0,56.4040126 0,44.5 C0,32.6309992 4.62155783,21.4272227 13.0243902,13.0243902 C21.4272227,4.62155783 32.5959874,0 44.5,0 C50.4520063,0 56.1939418,1.15538946 61.620771,3.43115657 C61.9008655,3.57120378 62.2159717,3.67623918 62.4960661,3.81628639 C63.93155,4.44649882 64.5967742,6.1620771 63.9665618,7.59756098 C63.3363493,9.06805665 61.620771,9.69826908 60.1852872,9.06805665 C59.9402046,8.96302124 59.6601101,8.85798584 59.4150275,8.75295043 C54.6884343,6.79228954 49.6817467,5.77694729 44.5,5.77694729 C23.1428009,5.77694729 5.74193548,23.1428009 5.74193548,44.5350118 C5.74193548,65.8922109 23.1077891,83.2930763 44.5,83.2930763 C65.8571991,83.2930763 83.2580645,65.9272227 83.2580645,44.5350118 C83.2580645,39.3882769 82.2777341,34.3815893 80.3170732,29.6900079 C80.1420142,29.2698662 79.9669552,28.8497246 79.7568843,28.429583 C79.0916601,26.9940991 79.7218725,25.2785208 81.1573564,24.6132966 C82.5928403,23.9480724 84.3084186,24.5782848 84.9736428,26.0137687 C85.1837136,26.5039339 85.3937844,26.9940991 85.6038552,27.4842644 C87.8446105,32.9110936 89,38.6180173 89,44.5350118 C89,56.4040126 84.3784422,67.6077891 75.9756098,76.0106216 C67.5377655,84.3784422 56.3690008,89 44.4649882,89" id="Path" fill="#010202"></path>
            <path d="M73,11 C73,12.6463415 71.6463415,14 70,14 C68.3536585,14 67,12.6463415 67,11 C67,9.35365854 68.3536585,8 70,8 C71.6463415,8 73,9.35365854 73,11" id="Path" fill="#010202"></path>
            <path d="M80,19 C80,20.6463415 78.6463415,22 77,22 C75.3536585,22 74,20.6463415 74,19 C74,17.3536585 75.3536585,16 77,16 C78.6463415,16 80,17.3170732 80,19" id="Path" fill="#010202"></path>
            <path d="M66,41.5518987 L66,41.5518987 C66,35.1949367 60.6262626,30 54.0505051,30 C50.4444444,30 47.1919192,31.5721519 45,34.0329114 C42.8080808,31.5721519 39.5555556,30 35.9494949,30 C29.3737374,30 24,35.1949367 24,41.5518987 L24,41.5518987 L24,41.5518987 L24,54.1974684 C24,55.735443 25.3080808,57 26.8989899,57 C28.489899,57 29.7979798,55.735443 29.7979798,54.1974684 C29.7979798,54.1974684 29.7979798,54.1974684 29.7979798,54.1974684 L29.7979798,41.5518987 C29.7979798,38.2708861 32.5555556,35.6050633 35.9494949,35.6050633 C39.3434343,35.6050633 42.1010101,38.2708861 42.1010101,41.5518987 L42.1010101,54.1974684 C42.1010101,55.735443 43.4090909,57 45,57 C46.5909091,57 47.8989899,55.735443 47.8989899,54.1974684 C47.8989899,54.1974684 47.8989899,54.1974684 47.8989899,54.1974684 L47.8989899,41.5518987 C47.8989899,38.2708861 50.6565657,35.6050633 54.0505051,35.6050633 C57.4444444,35.6050633 60.2020202,38.2708861 60.2020202,41.5518987 L60.2020202,54.1974684 C60.2020202,54.1974684 60.2020202,54.1974684 60.2020202,54.1974684 C60.2020202,55.735443 61.510101,57 63.1010101,57 C64.6919192,57 66,55.735443 66,54.1974684 L66,41.5518987 L66,41.5518987 Z" id="Path" fill="#000000"></path>
            <polygon id="Path" fill="#010202" points="114.03005 36 118.587646 49.0539568 118.657763 49.0539568 122.96995 36 129 36 129 55 125.003339 55 125.003339 41.5359712 124.933222 41.5359712 120.165275 55 116.869783 55 112.066778 41.6384892 112.03172 41.6384892 112.03172 55 108 55 108 36"></polygon>
            <path d="M131.805,40.5709156 C132.085,39.6499102 132.54,38.8653501 133.1,38.1831239 C133.695,37.5008977 134.395,36.989228 135.305,36.5798923 C136.18,36.2046679 137.195,36 138.35,36 C139.225,36 140.065,36.1364452 140.835,36.4093357 C141.64,36.6822262 142.305,37.0574506 142.935,37.535009 C143.53,38.0466786 144.02,38.6265709 144.37,39.3770197 C144.72,40.0933573 144.895,40.9120287 144.895,41.8330341 C144.895,42.7881508 144.755,43.572711 144.44,44.2549372 C144.125,44.9371634 143.705,45.5170557 143.215,46.0628366 C142.69,46.5745063 142.13,47.0520646 141.5,47.4955117 C140.87,47.9048474 140.205,48.3482944 139.54,48.7576302 C138.875,49.1669659 138.245,49.6104129 137.615,50.0879713 C136.985,50.5655296 136.46,51.1113106 135.97,51.7594255 L145,51.7594255 L145,55 L131,55 C131,53.9084381 131.175,52.9874327 131.49,52.2028725 C131.805,51.4183124 132.26,50.7019749 132.785,50.05386 C133.345,49.4398564 133.975,48.8599641 134.71,48.3141831 C135.445,47.7684022 136.215,47.2567325 137.055,46.6768402 C137.475,46.4039497 137.93,46.0969479 138.385,45.8240575 C138.84,45.5170557 139.295,45.2100539 139.68,44.8689408 C140.065,44.5278276 140.415,44.1184919 140.66,43.6750449 C140.94,43.2315978 141.045,42.7199282 141.045,42.1741472 C141.045,41.2531418 140.765,40.5709156 140.24,40.059246 C139.715,39.5475763 139.015,39.3087971 138.175,39.3087971 C137.615,39.3087971 137.125,39.4452424 136.74,39.6840215 C136.355,39.956912 136.04,40.2639138 135.795,40.7073609 C135.55,41.1166966 135.375,41.5942549 135.305,42.0718133 C135.2,42.5834829 135.165,43.0610413 135.165,43.572711 L131.455,43.572711 C131.385,42.481149 131.525,41.491921 131.805,40.5709156" id="Path" fill="#010202"></path>
            <path d="M150.796774,41.3381643 L150.796774,43.1980676 L150.867742,43.1980676 C151.4,42.4879227 152.003226,41.9468599 152.748387,41.5748792 C153.493548,41.2028986 154.309677,41 155.267742,41 C156.154839,41 157.006452,41.1690821 157.751613,41.5072464 C158.496774,41.8454106 159.064516,42.4202899 159.454839,43.2657005 C159.880645,42.6570048 160.448387,42.1497585 161.193548,41.6763285 C161.903226,41.2028986 162.790323,41 163.783871,41 C164.529032,41 165.23871,41.1014493 165.877419,41.2705314 C166.516129,41.4396135 167.083871,41.7439614 167.545161,42.115942 C168.006452,42.4879227 168.36129,42.9951691 168.609677,43.6376812 C168.858065,44.2463768 169,45.0241546 169,45.9033816 L169,55 L165.06129,55 L165.06129,47.2898551 C165.06129,46.8502415 165.025806,46.410628 164.990323,46.0048309 C164.954839,45.5990338 164.848387,45.2608696 164.670968,44.9565217 C164.493548,44.6521739 164.245161,44.4154589 163.925806,44.2463768 C163.606452,44.0772947 163.180645,43.9758454 162.612903,43.9758454 C162.045161,43.9758454 161.619355,44.0772947 161.264516,44.2801932 C160.909677,44.4830918 160.66129,44.7536232 160.448387,45.057971 C160.270968,45.3961353 160.129032,45.7681159 160.058065,46.173913 C159.987097,46.5797101 159.951613,47.0193237 159.951613,47.4251208 L159.951613,55 L156.012903,55 L156.012903,47.3574879 C156.012903,46.9516908 156.012903,46.5458937 155.977419,46.173913 C155.941935,45.7681159 155.870968,45.4299517 155.729032,45.0917874 C155.587097,44.7536232 155.374194,44.4830918 155.054839,44.2801932 C154.735484,44.0772947 154.274194,43.9758454 153.635484,43.9758454 C153.458065,43.9758454 153.209677,44.0096618 152.890323,44.0772947 C152.570968,44.1449275 152.287097,44.3140097 152.003226,44.5169082 C151.719355,44.7536232 151.470968,45.057971 151.258065,45.4637681 C151.045161,45.8695652 150.93871,46.410628 150.93871,47.0869565 L150.93871,55 L147,55 L147,41.3719807 L150.796774,41.3719807 L150.796774,41.3381643 Z" id="Path" fill="#010202"></path>
            <path d="M173.503597,44.4221698 C173.839329,43.5023585 174.309353,42.7240566 174.913669,42.0518868 C175.517986,41.4150943 176.256595,40.884434 177.095923,40.5306604 C177.935252,40.1768868 178.908873,40 179.983213,40 C181.057554,40 181.997602,40.1768868 182.870504,40.5306604 C183.743405,40.884434 184.482014,41.379717 185.086331,42.0518868 C185.690647,42.6886792 186.160671,43.5023585 186.496403,44.4221698 C186.832134,45.3419811 187,46.3679245 187,47.5353774 C187,48.6674528 186.832134,49.6933962 186.496403,50.6132075 C186.160671,51.5330189 185.690647,52.3113208 185.086331,52.9834906 C184.482014,53.620283 183.743405,54.1509434 182.870504,54.4693396 C181.997602,54.8231132 181.057554,55 179.983213,55 C178.908873,55 177.968825,54.8231132 177.095923,54.4693396 C176.256595,54.115566 175.517986,53.620283 174.913669,52.9834906 C174.309353,52.3466981 173.839329,51.5330189 173.503597,50.6132075 C173.167866,49.6933962 173,48.6674528 173,47.5353774 C173,46.4033019 173.167866,45.3419811 173.503597,44.4221698 M176.860911,49.1981132 C176.961631,49.7287736 177.129496,50.2240566 177.398082,50.6485849 C177.666667,51.0731132 178.002398,51.4268868 178.405276,51.6745283 C178.808153,51.9221698 179.345324,52.0636792 179.983213,52.0636792 C180.621103,52.0636792 181.1247,51.9221698 181.561151,51.6745283 C181.997602,51.4268868 182.333333,51.0731132 182.568345,50.6485849 C182.83693,50.2240566 183.004796,49.7287736 183.105516,49.1981132 C183.206235,48.6674528 183.273381,48.1014151 183.273381,47.5353774 C183.273381,46.9693396 183.206235,46.4033019 183.105516,45.8372642 C183.004796,45.2712264 182.83693,44.8113208 182.568345,44.3867925 C182.29976,43.9622642 181.964029,43.6084906 181.561151,43.3608491 C181.1247,43.0778302 180.621103,42.9716981 179.983213,42.9716981 C179.345324,42.9716981 178.841727,43.1132075 178.405276,43.3608491 C178.002398,43.6438679 177.666667,43.9622642 177.398082,44.3867925 C177.129496,44.8113208 176.961631,45.3066038 176.860911,45.8372642 C176.760192,46.4033019 176.693046,46.9339623 176.693046,47.5353774 C176.693046,48.1367925 176.760192,48.6320755 176.860911,49.1981132" id="Shape" fill="#010202"></path>
            <path d="M192.802469,35.0706714 L192.802469,42.2084806 L192.871605,42.2084806 C193.320988,41.4664311 193.977778,40.9363958 194.77284,40.5830389 C195.567901,40.229682 196.397531,40.0883392 197.261728,40.0883392 C197.953086,40.0883392 198.644444,40.229682 199.335802,40.5123675 C200.02716,40.795053 200.649383,41.254417 201.167901,41.8551237 C201.720988,42.4558304 202.17037,43.2332155 202.481481,44.1872792 C202.82716,45.1413428 203,46.2367491 203,47.5441696 C203,48.8515901 202.82716,49.9823322 202.481481,50.9010601 C202.135802,51.8551237 201.68642,52.6325088 201.167901,53.2332155 C200.614815,53.8339223 199.992593,54.2932862 199.335802,54.5759717 C198.644444,54.8586572 197.953086,55 197.261728,55 C196.224691,55 195.325926,54.8233216 194.530864,54.5053004 C193.735802,54.1872792 193.11358,53.6219081 192.698765,52.844523 L192.62963,52.844523 L192.62963,54.6466431 L189,54.6466431 L189,35 L192.802469,35 L192.802469,35.0706714 Z M198.990123,45.8833922 C198.851852,45.3180212 198.679012,44.8586572 198.402469,44.434629 C198.125926,44.0106007 197.780247,43.6925795 197.4,43.4452297 C196.985185,43.1978799 196.501235,43.0565371 195.948148,43.0565371 C195.395062,43.0565371 194.911111,43.1978799 194.496296,43.4452297 C194.081481,43.6925795 193.735802,44.0106007 193.459259,44.434629 C193.182716,44.8586572 193.009877,45.3533569 192.871605,45.8833922 C192.733333,46.4487633 192.698765,47.0141343 192.698765,47.614841 C192.698765,48.2155477 192.767901,48.7809187 192.871605,49.3109541 C193.009877,49.8763251 193.182716,50.335689 193.459259,50.7597173 C193.735802,51.1837456 194.081481,51.5017668 194.496296,51.7491166 C194.911111,51.9964664 195.395062,52.1378092 195.948148,52.1378092 C196.535802,52.1378092 197.019753,51.9964664 197.4,51.7491166 C197.814815,51.5017668 198.125926,51.1837456 198.402469,50.7597173 C198.679012,50.335689 198.851852,49.8409894 198.990123,49.3109541 C199.128395,48.745583 199.162963,48.180212 199.162963,47.614841 C199.162963,47.0141343 199.128395,46.4134276 198.990123,45.8833922" id="Shape" fill="#010202"></path>
            <path d="M206.035714,36 L210,36 L210,39.1097122 L206.035714,39.1097122 L206.035714,36 Z M209.964286,55 L206,55 L206,41.2284173 L209.964286,41.2284173 L209.964286,55 Z" id="Shape" fill="#010202"></path>
        </g>
    </g>
</svg>
